src/assets/icons/download.svg

<svg data-name="Layer 1" xmlns="http://www.w3.org/2000/svg" viewBox="0 0 1000 1000"><path d="M250.26 616.87l158 30.79V276.74a26.87 26.87 0 0 1 26.8-26.74H569a26.86 26.86 0 0 1 26.78 26.78v370.88l154-30.79c25.44-5.36 41.51 25.44 24.1 44.18L519.42 940.92c-10.72 12.05-28.12 12.05-38.84 0L226.16 661.05c-17.41-20.05-1.34-49.54 24.1-44.18z"/><path d="M955.75 50H45.26A44.93 44.93 0 0 0 0 95.3v358.93a44.93 44.93 0 0 0 45.26 45.27H281a45.27 45.27 0 0 0 0-90.5H90.52V139.51h820V409h-191.6a45.27 45.27 0 0 0 0 90.53H954.7a44.93 44.93 0 0 0 45.3-45.3V95.3C1001 70 981 50 955.75 50z"/></svg>

<svg id="Layer_1" data-name="Layer 1" xmlns="http://www.w3.org/2000/svg" viewBox="0 0 1000 1000"><title>download</title><path d="M250.26,616.87l158,30.79V276.74A26.87,26.87,0,0,1,435.06,250H569a26.86,26.86,0,0,1,26.78,26.78V647.66l154-30.79c25.44-5.36,41.51,25.44,24.1,44.18L519.42,940.92c-10.72,12.05-28.12,12.05-38.84,0L226.16,661.05C208.75,641,224.82,611.51,250.26,616.87Z"/><path d="M955.75,50H45.26A44.93,44.93,0,0,0,0,95.3V454.23A44.93,44.93,0,0,0,45.26,499.5H281A45.27,45.27,0,0,0,281,409H90.52V139.51h820V409H718.92a45.27,45.27,0,0,0,0,90.53H954.7A44.93,44.93,0,0,0,1000,454.23V95.3C1001,70,981,50,955.75,50Z"/></svg>
